src/activities/algorithm/resource/orange.svg

<?xml version="1.0" encoding="UTF-8" standalone="no"?>
<!-- Created with Inkscape (http://www.inkscape.org/) -->

<svg
   xmlns:dc="http://purl.org/dc/elements/1.1/"
   xmlns:cc="http://creativecommons.org/ns#"
   xmlns:rdf="http://www.w3.org/1999/02/22-rdf-syntax-ns#"
   xmlns:svg="http://www.w3.org/2000/svg"
   xmlns="http://www.w3.org/2000/svg"
   xmlns:sodipodi="http://sodipodi.sourceforge.net/DTD/sodipodi-0.dtd"
   xmlns:inkscape="http://www.inkscape.org/namespaces/inkscape"
   id="svg2"
   version="1.1"
   inkscape:version="0.91 r13725"
   width="100"
   height="100"
   sodipodi:docname="orange.svg">
  <metadata
     id="metadata8">
    <rdf:RDF>
      <cc:Work
         rdf:about="">
        <dc:format>image/svg+xml</dc:format>
        <dc:type
           rdf:resource="http://purl.org/dc/dcmitype/StillImage" />
        <dc:title></dc:title>
        <dc:date>2015</dc:date>
        <dc:creator>
          <cc:Agent>
            <dc:title>Timothée Giet</dc:title>
          </cc:Agent>
        </dc:creator>
        <cc:license
           rdf:resource="http://creativecommons.org/licenses/by-sa/4.0/" />
      </cc:Work>
      <cc:License
         rdf:about="http://creativecommons.org/licenses/by-sa/4.0/">
        <cc:permits
           rdf:resource="http://creativecommons.org/ns#Reproduction" />
        <cc:permits
           rdf:resource="http://creativecommons.org/ns#Distribution" />
        <cc:requires
           rdf:resource="http://creativecommons.org/ns#Notice" />
        <cc:requires
           rdf:resource="http://creativecommons.org/ns#Attribution" />
        <cc:permits
           rdf:resource="http://creativecommons.org/ns#DerivativeWorks" />
        <cc:requires
           rdf:resource="http://creativecommons.org/ns#ShareAlike" />
      </cc:License>
    </rdf:RDF>
  </metadata>
  <defs
     id="defs6" />
  <sodipodi:namedview
     pagecolor="#ffffff"
     bordercolor="#666666"
     borderopacity="1"
     objecttolerance="10"
     gridtolerance="10"
     guidetolerance="10"
     inkscape:pageopacity="0"
     inkscape:pageshadow="2"
     inkscape:window-width="1880"
     inkscape:window-height="1060"
     id="namedview4"
     showgrid="false"
     inkscape:zoom="2.085965"
     inkscape:cx="29.893053"
     inkscape:cy="103.72496"
     inkscape:window-x="-3"
     inkscape:window-y="-3"
     inkscape:window-maximized="1"
     inkscape:current-layer="svg2" />
  <path
     style="color:#000000;display:inline;overflow:visible;visibility:visible;opacity:1;fill:#be7115;fill-opacity:1;fill-rule:nonzero;stroke:none;stroke-width:0.5;stroke-linecap:round;stroke-linejoin:round;stroke-miterlimit:4;stroke-dasharray:none;stroke-dashoffset:0;stroke-opacity:1;marker:none;enable-background:accumulate"
     d="M 98.27586,49.423889 A 48.179142,48.179142 0 0 1 50.096718,97.603031 48.179142,48.179142 0 0 1 1.9175758,49.423889 48.179142,48.179142 0 0 1 50.096718,1.2447472 48.179142,48.179142 0 0 1 98.27586,49.423889 Z"
     id="path4233" />
  <path
     inkscape:connector-curvature="0"
     style="color:#000000;display:inline;overflow:visible;visibility:visible;opacity:1;fill:#f18d19;fill-opacity:1;fill-rule:nonzero;stroke:none;stroke-width:0.5;stroke-linecap:round;stroke-linejoin:round;stroke-miterlimit:4;stroke-dasharray:none;stroke-dashoffset:0;stroke-opacity:1;marker:none;enable-background:accumulate"
     d="M 94.680402,48.225403 A 44.583684,44.10429 0 0 1 50.096718,92.329692 44.583684,44.10429 0 0 1 5.513034,48.225403 44.583684,44.10429 0 0 1 50.096718,4.1211136 44.583684,44.10429 0 0 1 94.680402,48.225403 Z"
     id="path4233-3" />
  <path
     d="m 51.403625,12.443506 c 0.42424,2.400883 0.743986,10.472399 1.496332,10.472399 1.632172,-0.674973 3.705301,-8.655131 4.585127,-9.464453 0.877737,-0.809323 8.787813,6.130431 9.414768,5.861731 C 67.528896,19.042334 61.393101,7.7814639 61.643883,6.9721412 59.88632,6.8373616 57.522702,8.7060048 56.770356,7.3571337 56.018011,6.0082626 54.532129,6.734181 52.523784,4.980541 c -3.289421,3.7059025 -8.846329,5.3684 -10.353109,7.661588 1.50678,1.079097 7.535993,0.23796 9.23295,-0.198623 z"
     id="path984"
     inkscape:connector-curvature="0"
     style="fill:#1b7e1b;fill-rule:evenodd;stroke:none;stroke-width:2.11951137;stroke-linejoin:round;fill-opacity:1" />
  <path
     d="m 51.996845,10.918082 c 0.42424,2.400883 0.320258,10.387654 1.072604,10.387654 1.632172,-0.674973 3.366317,-8.655131 4.246143,-9.464453 0.877737,-0.809323 7.516627,5.960939 8.143582,5.692239 C 66.088218,17.262673 60.460897,8.9679046 60.711679,8.1585819 58.954116,8.0238023 56.929482,10.061937 56.177136,8.713066 55.424791,7.3641949 54.532129,7.6663845 52.523784,5.9127445 49.234363,9.618647 44.948641,10.009958 43.441861,12.303146 c 1.50678,1.079097 6.858027,-0.948481 8.554984,-1.385064 z"
     id="path984-6"
     inkscape:connector-curvature="0"
     style="fill:#29bf29;fill-opacity:1;fill-rule:evenodd;stroke:none;stroke-width:2.11951137;stroke-linejoin:round"
     sodipodi:nodetypes="cccccsccc" />
  <path
     d="m 54.484407,8.9412822 c 0.626954,1.7536398 2.133735,1.3488708 2.886081,0.5395484 1.504691,-0.4047688 0.493204,-2.4038925 0.917443,-5.5622931 -1.38139,-0.8095376 -1.458714,-0.6229527 -2.963405,-0.2183989 -0.252872,0.8093227 -1.341683,4.4318209 -0.840119,5.2411436 z"
     id="path985"
     inkscape:connector-curvature="0"
     style="fill:#1b7e1b;fill-opacity:1;fill-rule:evenodd;stroke:none;stroke-width:2.11951137;stroke-linejoin:round" />
  <path
     d="m 54.940902,8.3999433 c 0.471117,1.3177503 1.603368,1.0135918 2.168709,0.4054364 1.13068,-0.3041584 0.370611,-1.8063738 0.6894,-4.1797137 -1.038027,-0.6083162 -1.096132,-0.46811 -2.226812,-0.1641131 -0.190018,0.6081554 -1.008191,3.330235 -0.631297,3.9383904 z"
     id="path985-7"
     inkscape:connector-curvature="0"
     style="fill:#29bf29;fill-opacity:1;fill-rule:evenodd;stroke:none;stroke-width:2.11951137;stroke-linejoin:round" />
</svg>

<!--Created with Inkscape (http://www.inkscape.org/)--><svg xmlns:dc="http://purl.org/dc/elements/1.1/" xmlns:cc="http://creativecommons.org/ns#" xmlns:rdf="http://www.w3.org/1999/02/22-rdf-syntax-ns#" xmlns="http://www.w3.org/2000/svg" xmlns:sodipodi="http://sodipodi.sourceforge.net/DTD/sodipodi-0.dtd" xmlns:inkscape="http://www.inkscape.org/namespaces/inkscape" inkscape:version="0.91 r13725" width="100" height="100" sodipodi:docname="orange.svg"><metadata><rdf:RDF><cc:Work><dc:format>image/svg+xml</dc:format><dc:type rdf:resource="http://purl.org/dc/dcmitype/StillImage"/><dc:title/><dc:date>2015</dc:date><dc:creator><cc:Agent><dc:title>Timothée Giet</dc:title></cc:Agent></dc:creator><cc:license rdf:resource="http://creativecommons.org/licenses/by-sa/4.0/"/></cc:Work><cc:License rdf:about="http://creativecommons.org/licenses/by-sa/4.0/"><cc:permits rdf:resource="http://creativecommons.org/ns#Reproduction"/><cc:permits rdf:resource="http://creativecommons.org/ns#Distribution"/><cc:requires rdf:resource="http://creativecommons.org/ns#Notice"/><cc:requires rdf:resource="http://creativecommons.org/ns#Attribution"/><cc:permits rdf:resource="http://creativecommons.org/ns#DerivativeWorks"/><cc:requires rdf:resource="http://creativecommons.org/ns#ShareAlike"/></cc:License></rdf:RDF></metadata><sodipodi:namedview pagecolor="#ffffff" bordercolor="#666666" borderopacity="1" objecttolerance="10" gridtolerance="10" guidetolerance="10" inkscape:pageopacity="0" inkscape:pageshadow="2" inkscape:window-width="1880" inkscape:window-height="1060" showgrid="false" inkscape:zoom="2.085965" inkscape:cx="29.893053" inkscape:cy="103.72496" inkscape:window-x="-3" inkscape:window-y="-3" inkscape:window-maximized="1" inkscape:current-layer="svg2"/><path style="color:#000;display:inline;overflow:visible;visibility:visible;opacity:1;fill:#be7115;fill-opacity:1;fill-rule:nonzero;stroke:none;stroke-width:.5;stroke-linecap:round;stroke-linejoin:round;stroke-miterlimit:4;stroke-dasharray:none;stroke-dashoffset:0;stroke-opacity:1;marker:none;enable-background:accumulate" d="M98.276 49.424a48.18 48.18 0 0 1-48.18 48.179 48.18 48.18 0 0 1-48.178-48.18A48.18 48.18 0 0 1 50.097 1.246a48.18 48.18 0 0 1 48.179 48.179z"/><path inkscape:connector-curvature="0" style="color:#000;display:inline;overflow:visible;visibility:visible;opacity:1;fill:#f18d19;fill-opacity:1;fill-rule:nonzero;stroke:none;stroke-width:.5;stroke-linecap:round;stroke-linejoin:round;stroke-miterlimit:4;stroke-dasharray:none;stroke-dashoffset:0;stroke-opacity:1;marker:none;enable-background:accumulate" d="M94.68 48.225A44.584 44.104 0 0 1 50.097 92.33 44.584 44.104 0 0 1 5.513 48.225 44.584 44.104 0 0 1 50.097 4.121 44.584 44.104 0 0 1 94.68 48.225z"/><path d="M51.404 12.444c.424 2.4.744 10.472 1.496 10.472 1.632-.675 3.705-8.655 4.585-9.465.878-.809 8.788 6.13 9.415 5.862.629-.27-5.507-11.532-5.256-12.34-1.758-.136-4.121 1.733-4.874.384-.752-1.349-2.238-.623-4.246-2.376-3.29 3.705-8.847 5.368-10.353 7.661 1.506 1.08 7.536.238 9.233-.198z" inkscape:connector-curvature="0" style="fill:#1b7e1b;fill-rule:evenodd;stroke:none;stroke-width:2.11951137;stroke-linejoin:round;fill-opacity:1"/><path d="M51.997 10.918c.424 2.401.32 10.388 1.072 10.388 1.633-.675 3.367-8.655 4.247-9.465.877-.809 7.516 5.961 8.143 5.693.63-.271-4.998-8.566-4.747-9.375-1.758-.135-3.783 1.903-4.535.554-.752-1.349-1.645-1.047-3.653-2.8-3.29 3.706-7.575 4.097-9.082 6.39 1.507 1.08 6.858-.948 8.555-1.385z" inkscape:connector-curvature="0" style="fill:#29bf29;fill-opacity:1;fill-rule:evenodd;stroke:none;stroke-width:2.11951137;stroke-linejoin:round" sodipodi:nodetypes="cccccsccc"/><path d="M54.484 8.941c.627 1.754 2.134 1.35 2.886.54 1.505-.405.494-2.404.918-5.562-1.381-.81-1.459-.623-2.963-.219-.253.81-1.342 4.432-.84 5.241z" inkscape:connector-curvature="0" style="fill:#1b7e1b;fill-opacity:1;fill-rule:evenodd;stroke:none;stroke-width:2.11951137;stroke-linejoin:round"/><path d="M54.94 8.4c.472 1.318 1.604 1.014 2.17.405 1.13-.304.37-1.806.689-4.18-1.038-.608-1.096-.467-2.227-.163-.19.608-1.008 3.33-.631 3.938z" inkscape:connector-curvature="0" style="fill:#29bf29;fill-opacity:1;fill-rule:evenodd;stroke:none;stroke-width:2.11951137;stroke-linejoin:round"/></svg>
